X:1
T:Title
%%score { ( 1 3 ) | 2 }
L:1/8
M:3/4
K:C
V:1 treble nm="Grand Piano"
V:3 treble 
V:2 bass 
V:1
 z2 z2[Q:1/4=84] [CE][EG] | [EG][EG] [FA][EG] [FA][EG] | [CE][EG] [EG][DF] [B,D][DF] | %3
[M:2/4] [CE]4 |[M:1/4] [CE][EG] |[M:3/4] [EG][EG] [FA][EG] [FA][EG] | [Ec][Ec] BA BA | %7
[M:2/4] [B,G]4 |[M:1/4] [Gc][GB] |[M:3/4] [GB][FA] [FA]2 [GB][FA] | [FA][EG] [EG]2 [FA][EG] | %11
 [B,FA][B,FG] [B,FA][B,FG] [DF][B,D] | [CE][FA] [EG][CE] [Gc][GB] | [GB][FA] [FA]2 [GB][FA] | %14
 [FA][EG] [EG]2 [Gc][GB] | z2 z2 B2 |[M:2/4] [Ec]4 |] %17
V:2
 z2 z2 [C,G,][C,C] | [C,C][C,C] [C,C][C,C] [C,C][C,C] | %2
 [C,G,][C,G,] [G,,G,][G,,G,] [G,,G,][G,,G,] |[M:2/4] [C,G,]4 |[M:1/4] [C,G,][C,C] | %5
[M:3/4] [C,C][C,C] [C,C][C,C] [C,C][C,C] | [C,G,][C,G,] [D,G,D][D,G,C] [D,^F,D][D,F,C] | %7
[M:2/4] [G,,G,]4 |[M:1/4] [E,G,][E,C] |[M:3/4] [F,C][F,C] [F,C]2 [F,C][F,C] | %10
 [C,C][C,C] [C,C]2 [C,C][C,C] | [G,,G,][G,,G,] [G,,G,][G,,G,] [G,,G,][G,,G,] | %12
 [C,G,][C,C] [C,C][C,G,] [E,G,][E,C] | [F,C][F,C] [F,C]2 [F,C][F,C] | %14
 [C,C][C,C] [C,C]2 [E,C][E,C] | [F,C][F,A,] [D,A,]2 .[G,D]2 |[M:2/4] [C,G,]4 |] %17
V:3
 x6 | x6 | x6 |[M:2/4] x4 |[M:1/4] x2 |[M:3/4] x6 | x6 |[M:2/4] x4 |[M:1/4] x2 |[M:3/4] x6 | x6 | %11
 x6 | x6 | x6 | x6 | [FA][FA] [Fd]2 z F |[M:2/4] x4 |] %17

